X: 589
T: Beamish's goat
C: anon.
O: Ireland
B: Francis O'Neill: "The Dance Music of Ireland" (1907) no. 589
R: Reel
Z: Transcribed by Frank Nordberg - http://www.musicaviva.com
F: http://www.musicaviva.com/abc/tunes/ireland/oneill-1001/oneill-1001-058
9.abc
M: C|
L: 1/8
K: Ador
(dB)|A2(AB) GFGB|AGAB e2(dB)|A2(AB) GFGB|dBGB d2(dB)|A2 (AB) GFGB|AGAB cB
cd|edef gfge|
dBGBA2||(Bd)|e2(ef) gfgf|edcd efgf|e2(ef) gfge|dBGB d2Bd|e2 (ef) gfgf|efg
e a2(ef)|gaba gfef|gedB A2|]
W:
W:
W: From Musica Viva - http://www.musicaviva.com
W: the Internet center for free sheet music downloads.


